svg/close.svg

<?xml version="1.0" encoding="utf-8"?>
<!-- Generated by IcoMoon.io -->
<!DOCTYPE svg PUBLIC "-//W3C//DTD SVG 1.1//EN" "http://www.w3.org/Graphics/SVG/1.1/DTD/svg11.dtd">
<svg version="1.1" xmlns="http://www.w3.org/2000/svg" xmlns:xlink="http://www.w3.org/1999/xlink" width="32" height="32" viewBox="0 0 32 32">
	<path d="M14.2319996,31.7742377 C5.32699956,30.7212377 -0.664000439,23.0022377 0.0589995614,14.4082377 C1.06999956,6.1392377 7.38299956,0.391237703 15.0159996,0.00523770312 C26.1359996,-0.241762297 31.3889996,8.3002377 31.8829996,14.4082377 C32.8299996,27.6832377 20.7299996,32.9582377 14.2319996,31.7742377 L14.2319996,31.7742377 Z M10.6179996,24.5362377 C12.1399996,23.1192377 13.1889996,21.8642377 15.1939996,20.0342377 C15.4509996,19.7452377 16.4819996,19.7242377 16.8839996,20.0852377 C18.3519996,21.4762377 19.3979996,22.6352377 21.3069996,24.4732377 C21.7949996,24.8712377 22.6359996,24.8602377 22.9889996,24.6102377 C23.3459996,24.3582377 24.6749996,22.9972377 24.8299996,22.7322377 C25.0139996,22.4162377 25.0429996,21.8512377 24.6689996,21.2412377 C23.5039996,20.0672377 21.9089996,18.4912377 20.1779996,16.7252377 C19.7229996,16.1152377 19.9009996,15.3732377 20.2439996,14.9672377 C22.2329996,12.9662377 24.0639996,11.2102377 24.7459996,10.4262377 C24.9959996,9.8932377 24.9499996,9.3462377 24.7969996,9.0092377 C24.6389996,8.6622377 23.2479996,7.2852377 22.8909996,7.1222377 C22.5799996,6.9802377 21.9989996,6.8672377 21.4459996,7.2262377 C19.7619996,8.8422377 18.8009996,9.8222377 16.9629996,11.6462377 C16.2599996,12.1832377 15.5909996,12.0702377 15.0119996,11.6362377 C13.3039996,9.9332377 12.9709996,9.5592377 10.6329996,7.2882377 C10.3549996,6.9952377 9.47699956,6.9302377 9.18399956,7.0652377 C8.85399956,7.2172377 7.34399956,8.7122377 7.19999956,9.0302377 C7.13599956,9.1712377 6.92799956,9.5892377 7.20599956,10.3242377 C9.26599956,12.5352377 10.3059996,13.4282377 11.7679996,14.9802377 C12.1669996,15.4122377 12.1749996,16.4542377 11.7779996,16.7922377 C10.2819996,18.3472377 8.56299956,19.9622377 7.29899956,21.2832377 C7.07899956,21.7642377 6.85599956,22.2802377 7.23999956,22.8512377 C7.59299956,23.3772377 8.83199956,24.5042377 8.94899956,24.5762377 C9.49999956,24.9052377 9.82599956,24.9122377 10.6189996,24.5382377 L10.6179996,24.5362377 Z"></path>
</svg>

<?xml version="1.0" encoding="utf-8"?>
<!-- Generated by IcoMoon.io -->
<!DOCTYPE svg PUBLIC "-//W3C//DTD SVG 1.1//EN" "http://www.w3.org/Graphics/SVG/1.1/DTD/svg11.dtd">
<svg version="1.1" xmlns="http://www.w3.org/2000/svg" xmlns:xlink="http://www.w3.org/1999/xlink" width="32" height="32" viewBox="0 0 32 32">
	<path d="M14.249 31.774c-8.896-1.053-14.882-8.772-14.159-17.366 1.010-8.269 7.317-14.017 14.943-14.403 11.109-0.247 16.357 8.295 16.851 14.403 0.946 13.275-11.142 18.55-17.634 17.366v0zM10.639 24.536c1.521-1.417 2.569-2.672 4.572-4.502 0.257-0.289 1.287-0.31 1.688 0.051 1.467 1.391 2.512 2.55 4.419 4.388 0.488 0.398 1.328 0.387 1.68 0.137 0.357-0.252 1.684-1.613 1.839-1.878 0.184-0.316 0.213-0.881-0.161-1.491-1.164-1.174-2.757-2.75-4.487-4.516-0.455-0.61-0.277-1.352 0.066-1.758 1.987-2.001 3.816-3.757 4.498-4.541 0.25-0.533 0.204-1.080 0.051-1.417-0.158-0.347-1.547-1.724-1.904-1.887-0.311-0.142-0.891-0.255-1.444 0.104-1.682 1.616-2.642 2.596-4.479 4.42-0.702 0.537-1.371 0.424-1.949-0.010-1.706-1.703-2.039-2.077-4.375-4.348-0.278-0.293-1.155-0.358-1.448-0.223-0.33 0.152-1.838 1.647-1.982 1.965-0.064 0.141-0.272 0.559 0.006 1.294 2.058 2.211 3.097 3.104 4.558 4.656 0.399 0.432 0.407 1.474 0.010 1.812-1.495 1.555-3.212 3.17-4.475 4.491-0.22 0.481-0.443 0.997-0.059 1.568 0.353 0.526 1.59 1.653 1.707 1.725 0.55 0.329 0.876 0.336 1.668-0.038l-0.001-0.002z"></path>
</svg>
